!!!!SEGMENT: pl-wnifc--6829-n--002_wronski-adam--podkoweczki-ognia-dajcie-op-128-mazur-no-2.krn
!!!cenid: 18xx:4064
!!!COM: Wroński, Adam
!!!COM-rismID: pe50044737
!!!CDT: ~1850-1915/12/17
!!!CNT: Polish
!!!GTL: Podkóweczki, ognia dajcie! op. 128
!!!OTL: Mazur No. 2
!!!PDT:
!!!AGN:
!!!SMS-siglum: PL-Wnifc
!!!SMS-shelfmark: 6829/n
!!!SMS-shelfwork: 002 G
!!!SMS-variant:
!!!SMS-altvar:
!!!NIFC-rismSourceID: 1001160786
!!!NIFC-rismChildID: 1001160786
!!!NIFC-islandoraID: nifc:213786
!!!URL-pdf-islandora: https://repozytorium.nifc.pl/islandora/object/nifc%3A213786/datastream/PDF/view
!!!URL-scan: https://polish.musicsources.pl/pl/lokalizacje/galeria/druki-muzyczne/16946-podkoweczki-dajcie-ognia/3 @EN{Scan on Polish Music Sources Website} @PL{Skany w portalu Dziedzictwo Muzyki Polskiej w otwartym dostępie}
!!!ONB-nifc: UWAGA: w zbiorze 3 Mazury numerowane 001-003
!!!AIN: 2 piano
!!!key: A
**kern	**kern	**dynam
*part2	*part1	*part1
*staff2	*staff1	*
*I"Fortepian	*I"Fortepian	*
*I'pf	*I'pf	*
*ICklav	*ICklav	*
*Ipiano	*Ipiano	*
*clefF4	*clefG2	*
*k[f#c#g#]	*k[f#c#g#]	*
*A:	*A:	*
*M3/8	*M3/8	*
=1	=1	=1
!LO:TX:b:t=[segno]	!LO:TX:t=[segno]	!
8AA\L	8e/L	p
8E\ 8A 8c#	8cc#/J	.
.	(8qdd/	.
8E\J 8A 8c#	16cc#\LL)	.
.	16b#X\JJ	.
=2	=2	=2
!	!LO:TUP:a:problem:klamra łukowa	!
8GG#\L	24cc#\LL	.
.	24dd\	.
.	24cc#\JJ	.
8E\ 8G# 8B 8d	8b/L	.
8E\J 8G# 8B 8d	8e/J 8ee	.
=3	=3	=3
8EE\L	8e/L	.
8E\ 8G# 8d	8b/J	.
.	(8qcc#/	.
8E\J 8G# 8d	16b/LL)	.
.	16a#X/JJ	.
=4	=4	=4
!	!LO:TUP:a:problem:klamra łukowa	!
8AA\L	24b\LL	.
.	24cc#\	.
.	24b\JJ	.
8E\ 8A 8c#	8a\L	.
8E\J 8A 8c#	16cc#\L	.
.	16ee\JJ	.
=5	=5	=5
.	(8qa/	.
8CC#\L 8C#	8aa\L)	f
8C#\ 8E 8A	16a\L 16ee	.
.	16aa\	.
8CC#\J 8C#	16a\ 16ee	.
.	16aa\JJ	.
=6	=6	=6
8DD/ 8D	8gg#\	.
4D\ 4F# 4B	4ff#\	.
!!LO:LB:g=original	!	!
=7	=7	=7
8EE\L 8E	8ff#\	.
8E\ 8G# 8d	16g#\LL	.
.	16b\	.
8E\J 8G# 8d	16dd\	.
.	16b\JJ	.
=8	=8	=8
8AA\L	16.ff#\LL	.
.	32ee\JJk	.
8E\ 8A 8c#	8dd#X\L	.
8E\J 8A 8c#	8ee\J	.
=9	=9	=9
.	8qa/	.
8CC#\L 8C#	8aa\L	f
8C#\ 8E 8A	16a\L 16ee	.
.	16aa\	.
8CC#\J 8C#	16a\ 16ee	.
.	16aa\JJ	.
=10	=10	=10
8DD/ 8D	8gg#\	.
4D\ 4F# 4B	4ff#\	.
=11	=11	=11
!	!LO:TUP:a:problem:klamra łukowa	!
8EE\L 8E	24ee\LL	.
.	24ff#\	.
.	24ee\JJ	.
8E\ 8B 8d	8dd\L	.
8E\J 8G# 8d	16cc#\L	.
.	16b\JJ	.
=12	=12	=12
8A\L 8c#	8a\L	.
!	!LO:TX:B:i:b:t=Fine.	!
8AAA\J 8AA	8a\J 8cc# 8ee 8aa	.
8r	8r	.
=13:|!|:	=13:|!|:	=13:|!|:
*k[f#c#g#d#]	*k[f#c#g#d#]	*
16E\LL 16G# 16B	16e/LL 16g# 16b	ff
16E\JJ 16G# 16B	16e/JJ 16g# 16b	.
8E\L 8G# 8B	8e/L 8g# 8b	.
8E\J 8G# 8c#	8e/J 8g# 8cc#	.
!!LO:LB:g=original	!	!
=14	=14	=14
8E\ 8G# 8B	8e/ 8g# 8b	.
4E\ 4G# 4B	4e^>/ 4g# 4b 4ee	.
=15	=15	=15
8BBB/ 8BB	8b:\L 8dd#: 8ff#: 8bb:	.
!	!LO:TUP:a:problem:klamra łukowa	!
4BB^\ 4D# 4F# 4B	24aa\L	.
.	24bb\	.
.	24aa\JJ	.
.	16gg#\LL	.
.	16ff#\JJ	.
=16	=16	=16
8EE/ 8E	8b:\L 8ee: 8gg#: 8bb:	.
4E^\ 4G# 4B	8gg#\J	.
.	16ff#\LL	.
.	16ee\JJ	.
=17	=17	=17
16E\LL 16G# 16B	16e/LL 16g# 16b	.
16E\JJ 16G# 16B	16e/JJ 16g# 16b	.
8E\L 8G# 8B	8e/L 8g# 8b	.
8E\J 8G# 8c#	8e/J 8g# 8cc#	.
=18	=18	=18
8E\ 8G# 8B	8e/ 8g# 8b	.
4E\ 4G# 4B	4e/ 4g# 4b 4ee	.
=19	=19	=19
8BBB\L 8BB	8b\L 8dd# 8ff# 8bb	.
!	!LO:TUP:a:problem:klamra łukowa	!
8BB\ 8D# 8F# 8A	24aa\L	.
.	24bb\	.
.	24aa\JJ	.
8BB\J 8D# 8A	16gg#\LL	.
.	16ff#\JJ	.
=20	=20	=20
8E/L 8G#	8ee\L	.
!LO:TX:B:i:b:t=D.S. al Fine.	!	!
8EE/J 8E	8ee\J 8gg# 8bb 8eee	.
8r	8r	.
!LO:TX:b:t=[segno]	!LO:TX:t=[segno]	!
!!LO:LB:g=original	!	!
=21:|!	=21:|!	=21:|!
*clefF4	*clefG2	*
*k[b-]	*k[b-]	*
*M3/8	*M3/8	*
!	!LO:TX:B:a:t=Trio.	!
8DD\L 8D	4a\ 4dd 4ff 4aa	f
8D\ 8F 8A	.	.
8D\J 8F 8A	8a\ 8dd 8ff 8aa	.
=22	=22	=22
8D\L 8F 8A	16g#X\LL 16dd 16ff 16gg#X	.
.	16a\JJ 16dd 16ff 16aa	.
8D\ 8F 8A	8b-\L 8dd 8ff 8bb-	.
8D\J 8F 8A	8a\J 8dd 8ff 8aa	.
=23	=23	=23
8DD\L 8D	4a\ 4dd 4ff 4aa	.
8D\ 8F 8A	.	.
8D\J 8F 8A	8a\ 8dd 8ff 8aa	.
=24	=24	=24
8D\L 8E 8A	16g\LL 16gg	.
.	16f\JJ 16ff	.
8D\ 8G 8A	8e/L 8ee	.
8D\J 8F 8A	8d/J 8dd	.
=25	=25	=25
8DD\L 8D	4a\ 4dd 4ff 4aa	.
8D\ 8F 8A	.	.
8D\J 8F 8A	8a\ 8dd 8ff 8aa	.
!!LO:LB:g=original	!	!
=26	=26	=26
8D\L 8F 8A	16g#X\LL 16dd 16ff 16gg#X	.
.	16a\JJ 16dd 16ff 16aa	.
8D\ 8F 8A	8bn\L 8dd 8ff 8bbn	.
8D\J 8F 8A	8a\J 8dd 8ff 8aa	.
=27	=27	=27
8DD\L 8D	4a\ 4dd 4ff 4aa	.
8D\ 8F 8A	.	.
8D\J 8F 8A	8a\ 8dd 8ff 8aa	.
=28	=28	=28
8D\L 8F 8A	16g\LL 16gg	.
.	16f\JJ 16ff	.
8D\ 8F 8A	8e/L 8ee	.
8D\J 8F 8A	8d/J 8dd	.
=29	=29	=29
8AA\L	8a\L 8ee	.
8G\ 8A 8c#X	16a\L 16ee	.
.	16aa\	.
8G\J 8A 8c#	16a\ 16ee	.
.	16aa\JJ	.
=30	=30	=30
8D\L	4ff\	.
8F\ 8A 8d	.	.
8F\J 8A 8d	16ee\LL	.
.	16dd\JJ	.
!!LO:LB:g=original	!	!
=31	=31	=31
8AA\L	16.ee\LL	.
.	32aa\JJk	.
8G\ 8A 8c#X	8a\L	.
8G\J 8A 8c#	8aa\J	.
=32	=32	=32
!	!LO:TUP:a:problem:klamra łukowa	!
8D\L	24ff\LL	.
.	24gg\	.
.	24ff\JJ	.
8F\ 8A 8d	8ee\L	.
8F\J 8A 8d	8dd\J	.
=33	=33	=33
8AA\L	8a\L 8ee	.
8G\ 8A 8c#X	16a\L 16ee	.
.	16aa\	.
8G\J 8A 8c#	16a\ 16ee	.
.	16aa\JJ	.
=34	=34	=34
8D\L	4ffM\	.
8F\ 8A 8d	.	.
8F\J 8A 8d	16ee\LL	.
.	16dd\JJ	.
=35	=35	=35
8AA\L	16.ee\LL	.
.	32gg\JJk	.
8G\ 8A 8c#X	8.ffM\L	.
8G\J 8A 8c#	.	.
.	16ee\Jk	.
=36	=36	=36
!LO:TX:b:B:i:t=No 2. D.C. al Fine.	!	!
8D\L 8F 8A 8d	8dd\L	.
8DD\J 8D	8dd\J 8ff 8aa 8ddd	.
8r	8r	.
=:|!	=:|!	=:|!
*-	*-	*-
!!!system-decoration: {(s1,s2)}
!!!RDF**kern: > = above
!!!RDF**kern: < = below
!!!ENC: Berenika Jozajtis
!!!END: 2022-08-16
!!!ENC: Natalia Wrzos
!!!END: 2022-09-17!!!YEC: Copyright 2022 Narodowy Instytut Fryderyka Chopina (https://polishscores.org)
!!!YEM: License CC-BY-4.0 (https://creativecommons.org/licenses/by/4.0)
